src/rounded/icons/fi-rr-cursor-plus.svg

<svg id="Layer_1" height="512" viewBox="0 0 24 24" width="512" xmlns="http://www.w3.org/2000/svg" data-name="Layer 1"><path d="m16 8a8 8 0 1 0 8 8 8.009 8.009 0 0 0 -8-8zm0 14a6 6 0 1 1 6-6 6.006 6.006 0 0 1 -6 6zm4-6a1 1 0 0 1 -1 1h-2v2a1 1 0 0 1 -2 0v-2h-2a1 1 0 0 1 0-2h2v-2a1 1 0 0 1 2 0v2h2a1 1 0 0 1 1 1zm-8-11.019a1 1 0 0 0 -.586-.891l-8.675-3.944a.893.893 0 0 0 -.09-.037 1.99 1.99 0 0 0 -2.061.479 2.011 2.011 0 0 0 -.442 2.151l3.944 8.675a1 1 0 0 0 .891.586h.019a1 1 0 0 0 .895-.553l1.85-3.7 3.7-1.85a1 1 0 0 0 .555-.916zm-5.447 1.124a1 1 0 0 0 -.448.448l-1.064 2.128-3.041-6.676 6.679 3.038z"/></svg>

<svg id="Layer_1" data-name="Layer 1" xmlns="http://www.w3.org/2000/svg" viewBox="0 0 24 24"><path d="M16,8a8,8,0,1,0,8,8A8.009,8.009,0,0,0,16,8Zm0,14a6,6,0,1,1,6-6A6.006,6.006,0,0,1,16,22Zm4-6a1,1,0,0,1-1,1H17v2a1,1,0,0,1-2,0V17H13a1,1,0,0,1,0-2h2V13a1,1,0,0,1,2,0v2h2A1,1,0,0,1,20,16ZM12,4.981a1,1,0,0,0-.586-.891L2.739.146a.893.893,0,0,0-.09-.037A1.99,1.99,0,0,0,.588.588,2.011,2.011,0,0,0,.146,2.739L4.09,11.414A1,1,0,0,0,4.981,12H5a1,1,0,0,0,.895-.553l1.85-3.7,3.7-1.85A1,1,0,0,0,12,4.981ZM6.553,6.105a1,1,0,0,0-.448.448L5.041,8.681,2,2.005,8.679,5.043Z"/></svg>
